icon-themes/sifr_svg/cmd/lc_zoommode.svg

<svg viewBox="0 0 24 24" xmlns="http://www.w3.org/2000/svg"><path d="m12 1-3 3h6zm0 4c-3.849364 0-7 3.15064-7 7s3.150636 7 7 7c1.409123 0 2.722638-.424314 3.824219-1.148438a1.50015 1.50015 0 0 0 .06055.06445l3.527343 3.617188a1.50015 1.50015 0 1 0 2.146485-2.0957l-3.527347-3.615235a1.50015 1.50015 0 0 0 -.113281-.107421c.681651-1.079203 1.082031-2.351331 1.082031-3.714844 0-3.8493599-3.150637-7-7-7zm-1 3h2v3h3v2h-3v3h-2v-3h-3v-2h3zm-7 1-3 3 3 3zm16 0v6l3-3zm-11 11 3 3 3-3z" fill="#555753"/></svg>

<svg xmlns="http://www.w3.org/2000/svg" viewBox="0 0 24 24">
 <path
     style="fill:#555753"
     d="m 12,1 -3,3 6,0 -3,-3 z m 0,4 c -3.849364,0 -7,3.15064 -7,7 0,3.84936 3.150636,7 7,7 1.409123,0 2.722638,-0.424314 3.824219,-1.148438 a 1.50015,1.50015 0 0 0 0.06055,0.06445 l 3.527343,3.617188 a 1.50015,1.50015 0 1 0 2.146485,-2.0957 L 18.03125,15.822265 A 1.50015,1.50015 0 0 0 17.917969,15.714844 C 18.59962,14.635641 19,13.363513 19,12 19,8.1506401 15.849363,5 12,5 Z m -1,3 2,0 L 13,11 l 3,0 0,2 -3,0 0,3 -2,0 0,-3 -3,0 0,-2 3,0 0,-3 z M 4,9 1,12 4,15 4,9 Z m 16,0 L 20,15 23,12 20,9 Z M 9,20 l 3,3 3,-3 -6,0 z"
     />
 </svg>
